icons/24x24_timer_add_outline.svg

<svg xmlns="http://www.w3.org/2000/svg" width="24" height="24" viewBox="0 0 24 24">
  <path d="M14.0069789,19.7080403 C14.002344,19.8047774 14,19.9021149 14,20 C14,20.5965633 14.0870638,21.1727917 14.2491782,21.7166721 C13.5302808,21.9016307 12.7766281,22 12,22 C7.02943725,22 3,17.9705627 3,13 C3,9.05870117 5.53344805,5.70912084 9.06069225,4.49091092 C9.02105563,4.33384152 9,4.16937966 9,4 C9,2.8954305 9.8954305,2 11,2 L13,2 C14.1045695,2 15,2.8954305 15,4 C15,4.16937966 14.9789444,4.33384152 14.9393077,4.49091092 C15.5943116,4.71713063 16.2150454,5.01684834 16.7916499,5.38020473 C16.7979286,5.37373841 16.8042654,5.36730752 16.8106602,5.3609127 C17.514893,4.65667991 18.6566799,4.65667991 19.3609127,5.3609127 L19.6390873,5.6390873 C20.3433201,6.34332009 20.3433201,7.48510704 19.6390873,8.18933983 C19.6326925,8.19573464 19.6262616,8.20207139 19.6197953,8.20835007 C20.494141,9.59583558 21,11.2388429 21,13 C21,13.3629842 20.9785114,13.7209494 20.9367369,14.0726929 C20.6315138,14.0248413 20.3186579,14 20,14 C19.6293182,14 19.2664874,14.0336145 18.9143898,14.0979616 C18.970741,13.7402528 19,13.3735433 19,13 C19,9.13400675 15.8659932,6 12,6 C8.13400675,6 5,9.13400675 5,13 C5,16.8659932 8.13400675,20 12,20 C12.6975244,20 13.3712201,19.8979774 14.0069789,19.7080403 Z M21,19 L23,19 C23.5522847,19 24,19.4477153 24,20 C24,20.5522847 23.5522847,21 23,21 L21,21 L21,23 C21,23.5522847 20.5522847,24 20,24 C19.4477153,24 19,23.5522847 19,23 L19,21 L17,21 C16.4477153,21 16,20.5522847 16,20 C16,19.4477153 16.4477153,19 17,19 L19,19 L19,17 C19,16.4477153 19.4477153,16 20,16 C20.5522847,16 21,16.4477153 21,17 L21,19 Z M11,11.2675644 L11,9 C11,8.44771525 11.4477153,8 12,8 C12.5522847,8 13,8.44771525 13,9 L13,11.2675644 C13.5978014,11.6133738 14,12.2597176 14,13 C14,14.1045695 13.1045695,15 12,15 C10.8954305,15 10,14.1045695 10,13 C10,12.2597176 10.4021986,11.6133738 11,11.2675644 Z"/>
</svg>

<svg width="24" height="24" fill="none" xmlns="http://www.w3.org/2000/svg"><path d="M14.007 19.708a6.02 6.02 0 0 0 .242 2.009A9 9 0 0 1 9.06 4.49 2 2 0 0 1 11 2h2a2 2 0 0 1 1.94 2.49 8.965 8.965 0 0 1 1.852.89l.019-.02a1.803 1.803 0 0 1 2.55 0l.278.278a1.803 1.803 0 0 1-.02 2.57A8.958 8.958 0 0 1 21 13c0 .363-.021.72-.063 1.073a6.038 6.038 0 0 0-2.023.025 7 7 0 1 0-4.907 5.61ZM21 19h2a1 1 0 1 1 0 2h-2v2a1 1 0 1 1-2 0v-2h-2a1 1 0 1 1 0-2h2v-2a1 1 0 1 1 2 0v2Zm-10-7.732V9a1 1 0 1 1 2 0v2.268A2 2 0 0 1 12 15a2 2 0 0 1-1-3.732Z" fill="#000"/></svg>
